build/system/BalanceSolid.svg

<svg xmlns="http://www.w3.org/2000/svg" fill="none" viewBox="0 0 24 24" focusable="false"><path d="M0 0H24V24H0z"/><path fill="#74767B" fill-rule="evenodd" d="M17.0094 5.08423L14.3938 5.08423C14.1123 4.11156 13.215 3.40039 12.1516 3.40039C11.0883 3.40039 10.191 4.11156 9.9095 5.08423L6.99113 5.08423C6.69149 5.08423 6.43921 5.28697 6.36398 5.56276C6.34798 5.59015 6.33407 5.61985 6.32261 5.65187L2.5349 16.2379L2.53321 16.2477C2.53592 18.5982 4.44223 20.5028 6.79338 20.5028C9.10558 20.5028 10.9876 18.6607 11.0519 16.3641C11.0519 16.2837 11.0397 16.2039 11.0126 16.1283L7.5262 6.38423L9.9095 6.38423C10.191 7.3569 11.0883 8.06808 12.1516 8.06808C13.215 8.06808 14.1123 7.3569 14.3938 6.38423L16.4743 6.38423L12.9879 16.1283C12.9608 16.2039 12.9487 16.2837 12.9487 16.3641C13.013 18.6607 14.8949 20.5028 17.2071 20.5028C19.5193 20.5028 21.4013 18.6607 21.4656 16.3641C21.4656 16.2837 21.4535 16.2039 21.4264 16.1283L17.6779 5.65187C17.6665 5.61988 17.6526 5.59021 17.6366 5.56286C17.5614 5.28702 17.3091 5.08423 17.0094 5.08423ZM9.67287 16.2427L6.79338 8.19499L3.9139 16.2427L9.67287 16.2427ZM20.0866 16.2427L14.3277 16.2427L17.2071 8.19499L20.0866 16.2427Z"/></svg>

<svg xmlns="http://www.w3.org/2000/svg" fill="none" viewBox="0 0 24 24" focusable="false"><path fill="#74767B" fill-rule="evenodd" d="M17 5.08h-2.61a2.334 2.334 0 0 0-2.24-1.68c-1.07 0-1.96.71-2.25 1.68H6.99c-.3 0-.56.2-.63.48-.02.03-.03.05-.04.09L2.53 16.23v.01c0 2.35 1.91 4.26 4.26 4.26 2.31 0 4.19-1.84 4.26-4.14 0-.08-.02-.16-.04-.24L7.52 6.38H9.9c.29.97 1.18 1.68 2.25 1.68 1.06 0 1.96-.71 2.24-1.68h2.08l-3.49 9.74c-.02.08-.04.16-.04.24.07 2.3 1.95 4.14 4.26 4.14s4.2-1.84 4.26-4.14c0-.08-.01-.16-.04-.24L17.67 5.65a.3.3 0 0 0-.04-.09.645.645 0 0 0-.63-.48M9.67 16.24 6.79 8.19l-2.88 8.05zm10.41 0h-5.76l2.88-8.05z"/></svg>
